X: 37
T:Serch Hudol
T:The Allurement of Love
M:C
L:1/8
Q:130
C:Trad
S:51 Welsh Airs
R:?
A:Wales
H:From a facsimile c.1840: A Choice Collection of Fifty-One Welsh Airs
H:adapted for The Harp, Piano-Forte, Harpsichord,
H:Violin, or Flute by Edward Jones
H:"Harper to His Late Majesty King George IV, when
H:Prince of Wales".
Z:brian_martin12345@yahoo.com
K:F
"Pathetic"
f2F/A/c/f/ {EGc}e3z|d2D/F/B/d/ {CFA}c3z|(d>c)de fdag|fe/d/ {fd}e>dd2de|!
{FAc}f2fe dcBA|GB/A/ GF EGcE|FAdc BAGF|E>F ({GAGA}G2 {FG}F3)z:||!
Ac/A/ FG A4|(d>f)ed (^ce)ac|(df)ad (eA)ag|fe/d/ fed2de|!
f/F/A/c/ fe dcBA|G/A/B/A/ GF (EG)cE|
(FA)dc (BAGF)|(E>F) ({GAGA}G2 {FG}F4):||
